X:1
T:Kadullekens
C:Trad.
O:Vlaanderen
Z:Bart Vanhaverbeke 
L:1/8
M:6/8
K:Em
E2 G | (B3 B2) c | B3 BAG | FFF AGF | G2 E E2 G | (B3 B2) c |B3 BAG | FFF AGF | E2 z z2 z |
GGG AAA | d2 d B2 B | GGG G2 G | AAA D2 z | GGG AAA | d2 d B2 B | GGG G2 G | [M:3/8] A2A2A2 | [M:6/8] G2 z |]
